apps/i2021/public/icons/archery.svg

<svg enable-background="new 0 0 502 502" viewBox="0 0 502 502" xmlns="http://www.w3.org/2000/svg"><circle cx="251" cy="251" fill="#ccc" r="241"/><circle cx="251" cy="251" fill="#4d4d4d" r="195"/><circle cx="251" cy="251" fill="#50a5dc" r="142.978"/><circle cx="251" cy="251" fill="#c1272d" r="88.127"/><circle cx="251" cy="251" fill="#fce600" r="33.726"/><path d="m428.483 73.516c-47.407-47.408-110.438-73.516-177.483-73.516-63.937 0-124.213 23.76-170.78 67.077l-3.22-3.22v-34.857c0-5.523-4.478-10-10-10s-10 4.477-10 10v14.857l-7.929-7.929c-3.906-3.904-10.236-3.904-14.143 0-3.905 3.905-3.905 10.237 0 14.143l5.929 5.929h-12.857c-5.522 0-10 4.477-10 10s4.478 10 10 10h32.857l5.256 5.256c-42.707 46.424-66.113 106.282-66.113 169.744 0 67.044 26.108 130.076 73.517 177.484 47.407 47.408 110.438 73.516 177.483 73.516s130.076-26.108 177.483-73.516c47.409-47.408 73.517-110.44 73.517-177.484s-26.108-130.076-73.517-177.484zm-177.483 408.484c-127.374 0-231-103.626-231-231 0-59.843 22.877-114.442 60.34-155.517l18.401 18.401c-32.765 36.349-52.741 84.441-52.741 137.116 0 113.038 91.963 205 205 205s205-91.962 205-205-91.963-205-205-205c-53.182 0-101.696 20.361-138.166 53.691l-18.387-18.386c41.192-38.031 96.202-61.305 156.553-61.305 127.374 0 231 103.626 231 231s-103.626 231-231 231zm-115.427-331.285c-23.378 26.872-37.55 61.954-37.55 100.285 0 84.353 68.625 152.978 152.978 152.978s152.977-68.625 152.977-152.978c0-39.14-14.771-76.38-41.592-104.86-3.786-4.02-10.115-4.21-14.136-.424s-4.211 10.115-.425 14.136c23.313 24.755 36.152 57.125 36.152 91.148 0 73.324-59.653 132.978-132.978 132.978s-132.977-59.654-132.977-132.978c0-32.816 11.955-62.888 31.73-86.105l24.739 24.739c-13.516 16.817-21.618 38.162-21.618 61.367 0 54.107 44.02 98.126 98.127 98.126 16.331 0 32.505-4.096 46.772-11.845 4.854-2.636 6.651-8.707 4.015-13.561-2.635-4.853-8.708-6.651-13.56-4.015-11.347 6.163-24.22 9.42-37.228 9.42-43.079 0-78.127-35.047-78.127-78.126 0-17.687 5.916-34.013 15.862-47.122l24.728 24.728c-3.925 6.555-6.189 14.214-6.189 22.394 0 24.11 19.615 43.726 43.726 43.726s43.727-19.616 43.727-43.726-19.616-43.726-43.726-43.726c-8.699 0-16.805 2.564-23.623 6.96l-24.619-24.619c13.295-10.471 30.045-16.742 48.242-16.742 43.079 0 78.127 35.047 78.127 78.126 0 5.523 4.478 10 10 10s10-4.477 10-10c0-54.107-44.02-98.126-98.127-98.126-23.714 0-45.49 8.457-62.472 22.512l-24.712-24.712c23.36-20.327 53.859-32.651 87.184-32.651 10.699 0 21.342 1.273 31.632 3.783 5.369 1.306 10.777-1.979 12.085-7.345 1.31-5.366-1.979-10.776-7.345-12.085-11.84-2.889-24.077-4.353-36.372-4.353-38.839 0-74.337 14.557-101.344 38.491l-22.671-22.671c32.834-29.717 76.347-47.842 124.015-47.842 102.01 0 185 82.991 185 185s-82.99 185-185 185-185-82.991-185-185c0-47.16 17.747-90.247 46.902-122.956zm101.356 101.356c1.953 1.952 4.511 2.929 7.071 2.929s5.118-.977 7.071-2.929c3.905-3.905 3.905-10.237 0-14.143l-8.931-8.931c2.74-1.107 5.729-1.723 8.86-1.723 13.082 0 23.726 10.643 23.726 23.726s-10.644 23.726-23.726 23.726-23.726-10.643-23.726-23.726c0-2.582.42-5.067 1.187-7.396z"/><path d="m337.67 124.926c-5.791-3.989-11.912-7.608-18.19-10.756-4.938-2.476-10.947-.48-13.422 4.458-2.476 4.937-.479 10.946 4.457 13.421 5.457 2.736 10.776 5.881 15.812 9.349 1.731 1.193 3.707 1.765 5.663 1.765 3.179 0 6.305-1.513 8.244-4.329 3.132-4.548 1.985-10.775-2.564-13.908z"/><path d="m335.877 276.824c-5.067-2.193-10.956.133-13.15 5.202-2.721 6.281-6.271 12.194-10.552 17.574-3.438 4.322-2.723 10.613 1.599 14.052 1.841 1.464 4.038 2.175 6.22 2.175 2.942 0 5.857-1.293 7.832-3.774 5.375-6.755 9.834-14.183 13.253-22.078 2.194-5.068-.135-10.955-5.202-13.151z"/></svg>

<svg viewBox="0 0 502 502" xmlns="http://www.w3.org/2000/svg"><circle cx="251" cy="251" fill="#ccc" r="241"/><circle cx="251" cy="251" fill="#4d4d4d" r="195"/><circle cx="251" cy="251" fill="#50a5dc" r="142.978"/><circle cx="251" cy="251" fill="#c1272d" r="88.127"/><circle cx="251" cy="251" fill="#fce600" r="33.726"/><path d="M428.483 73.516C381.076 26.108 318.045 0 251 0 187.063 0 126.787 23.76 80.22 67.077L77 63.857V29c0-5.523-4.478-10-10-10s-10 4.477-10 10v14.857l-7.929-7.929c-3.906-3.904-10.236-3.904-14.143 0-3.905 3.905-3.905 10.237 0 14.143L40.857 56H28c-5.522 0-10 4.477-10 10s4.478 10 10 10h32.857l5.256 5.256C23.406 127.68 0 187.538 0 251c0 67.044 26.108 130.076 73.517 177.484C120.924 475.892 183.955 502 251 502s130.076-26.108 177.483-73.516C475.892 381.076 502 318.044 502 251s-26.108-130.076-73.517-177.484zM251 482C123.626 482 20 378.374 20 251c0-59.843 22.877-114.442 60.34-155.517l18.401 18.401C65.976 150.233 46 198.325 46 251c0 113.038 91.963 205 205 205s205-91.962 205-205S364.037 46 251 46c-53.182 0-101.696 20.361-138.166 53.691L94.447 81.305C135.639 43.274 190.649 20 251 20c127.374 0 231 103.626 231 231S378.374 482 251 482zM135.573 150.715c-23.378 26.872-37.55 61.954-37.55 100.285 0 84.353 68.625 152.978 152.978 152.978S403.978 335.353 403.978 251c0-39.14-14.771-76.38-41.592-104.86-3.786-4.02-10.115-4.21-14.136-.424s-4.211 10.115-.425 14.136c23.313 24.755 36.152 57.125 36.152 91.148 0 73.324-59.653 132.978-132.978 132.978S118.022 324.324 118.022 251c0-32.816 11.955-62.888 31.73-86.105l24.739 24.739c-13.516 16.817-21.618 38.162-21.618 61.367 0 54.107 44.02 98.126 98.127 98.126 16.331 0 32.505-4.096 46.772-11.845 4.854-2.636 6.651-8.707 4.015-13.561-2.635-4.853-8.708-6.651-13.56-4.015-11.347 6.163-24.22 9.42-37.228 9.42-43.079 0-78.127-35.047-78.127-78.126 0-17.687 5.916-34.013 15.862-47.122l24.728 24.728A43.457 43.457 0 0 0 207.273 251c0 24.11 19.615 43.726 43.726 43.726S294.726 275.11 294.726 251 275.11 207.274 251 207.274a43.453 43.453 0 0 0-23.623 6.96l-24.619-24.619c13.295-10.471 30.045-16.742 48.242-16.742 43.079 0 78.127 35.047 78.127 78.126 0 5.523 4.478 10 10 10s10-4.477 10-10c0-54.107-44.02-98.126-98.127-98.126-23.714 0-45.49 8.457-62.472 22.512l-24.712-24.712c23.36-20.327 53.859-32.651 87.184-32.651 10.699 0 21.342 1.273 31.632 3.783 5.369 1.306 10.777-1.979 12.085-7.345 1.31-5.366-1.979-10.776-7.345-12.085A153.593 153.593 0 0 0 251 98.022c-38.839 0-74.337 14.557-101.344 38.491l-22.671-22.671C159.819 84.125 203.332 66 251 66c102.01 0 185 82.991 185 185s-82.99 185-185 185S66 353.009 66 251c0-47.16 17.747-90.247 46.902-122.956zm101.356 101.356A9.97 9.97 0 0 0 244 255a9.97 9.97 0 0 0 7.071-2.929c3.905-3.905 3.905-10.237 0-14.143l-8.931-8.931a23.598 23.598 0 0 1 8.86-1.723c13.082 0 23.726 10.643 23.726 23.726S264.082 274.726 251 274.726 227.274 264.083 227.274 251c0-2.582.42-5.067 1.187-7.396z"/><path d="M337.67 124.926a153.36 153.36 0 0 0-18.19-10.756c-4.938-2.476-10.947-.48-13.422 4.458-2.476 4.937-.479 10.946 4.457 13.421a133.363 133.363 0 0 1 15.812 9.349 9.949 9.949 0 0 0 5.663 1.765 9.988 9.988 0 0 0 8.244-4.329c3.132-4.548 1.985-10.775-2.564-13.908zm-1.793 151.898c-5.067-2.193-10.956.133-13.15 5.202a78.097 78.097 0 0 1-10.552 17.574c-3.438 4.322-2.723 10.613 1.599 14.052a9.961 9.961 0 0 0 6.22 2.175 9.985 9.985 0 0 0 7.832-3.774 98.06 98.06 0 0 0 13.253-22.078c2.194-5.068-.135-10.955-5.202-13.151z"/></svg>
